X: 1
T: Girls Of Knocknagow, The
M: 6/8
L: 1/8
R: jig
K: Amin
|:E|&quot;Am&quot;EAA EAB|&quot;C&quot;cde g2 e|&quot;G&quot;ded cBA|&quot;Em&quot;G3 BGD|
&quot;Am&quot;EAA EAB|&quot;C&quot;cde g2 e|&quot;G&quot;ded BAG|&quot;Am&quot;A3 A2:|
|:B|&quot;C&quot;c2 E Gce|g2 e cde|&quot;G&quot;ded GAB|dBG &quot;Em&quot;GAB|
&quot;C&quot;c2 E Gce|g2 e cde|&quot;G&quot;ded BAG|&quot;Am&quot;A3 A2:|
